inst/assets/svg/wi-rain-wind.svg

<?xml version="1.0" encoding="UTF-8"?>
<svg xmlns="http://www.w3.org/2000/svg" xmlns:xlink="http://www.w3.org/1999/xlink" width="30pt" height="30pt" viewBox="0 0 30 30" version="1.1">
<g id="surface806">
<path style=" stroke:none;fill-rule:nonzero;fill:rgb(0%,0%,0%);fill-opacity:1;" d="M 4.628906 16.929688 C 4.628906 18.050781 4.960938 19.039063 5.609375 19.921875 C 6.261719 20.789063 7.109375 21.390625 8.160156 21.710938 C 8.25 21.730469 8.328125 21.699219 8.398438 21.628906 L 9.558594 20.199219 C 8.671875 20.199219 7.910156 19.878906 7.28125 19.238281 C 6.648438 18.601563 6.328125 17.828125 6.328125 16.929688 C 6.328125 16.089844 6.609375 15.351563 7.171875 14.730469 C 7.730469 14.109375 8.429688 13.761719 9.269531 13.691406 L 9.800781 13.621094 C 9.910156 13.621094 9.960938 13.578125 9.960938 13.488281 L 10.039063 12.941406 C 10.160156 11.839844 10.628906 10.929688 11.429688 10.210938 C 12.230469 9.488281 13.179688 9.128906 14.28125 9.128906 C 15.378906 9.128906 16.339844 9.488281 17.148438 10.21875 C 17.96875 10.949219 18.421875 11.859375 18.519531 12.941406 L 18.589844 13.519531 C 18.609375 13.628906 18.691406 13.691406 18.808594 13.691406 L 20.429688 13.691406 C 21.328125 13.691406 22.101563 14.011719 22.730469 14.640625 C 23.359375 15.269531 23.679688 16.03125 23.679688 16.929688 C 23.679688 17.761719 23.398438 18.488281 22.839844 19.109375 C 22.28125 19.730469 21.589844 20.089844 20.769531 20.191406 C 20.648438 20.191406 20.488281 20.210938 20.28125 20.25 C 20.089844 20.269531 19.949219 20.339844 19.871094 20.480469 L 17.511719 23.269531 C 17.371094 23.449219 17.308594 23.660156 17.351563 23.898438 C 17.378906 24.140625 17.488281 24.328125 17.660156 24.46875 C 17.769531 24.589844 17.949219 24.660156 18.21875 24.660156 C 18.480469 24.660156 18.691406 24.539063 18.828125 24.308594 L 20.949219 21.871094 C 22.191406 21.738281 23.238281 21.210938 24.101563 20.261719 C 24.960938 19.308594 25.378906 18.199219 25.378906 16.929688 C 25.378906 16.261719 25.25 15.609375 24.988281 15 C 24.730469 14.390625 24.378906 13.859375 23.941406 13.421875 C 23.5 12.980469 22.96875 12.628906 22.359375 12.371094 C 21.75 12.109375 21.109375 11.980469 20.429688 11.980469 L 20.109375 11.980469 C 19.78125 10.660156 19.070313 9.570313 17.988281 8.71875 C 16.910156 7.871094 15.671875 7.449219 14.269531 7.449219 C 13.339844 7.449219 12.460938 7.648438 11.640625 8.050781 C 10.820313 8.449219 10.128906 9 9.558594 9.710938 C 8.988281 10.421875 8.621094 11.230469 8.429688 12.128906 C 7.308594 12.378906 6.390625 12.949219 5.679688 13.851563 C 4.980469 14.738281 4.628906 15.769531 4.628906 16.929688 Z M 8.011719 24.949219 C 8.011719 25.011719 8.03125 25.109375 8.070313 25.25 C 8.160156 25.460938 8.300781 25.609375 8.511719 25.691406 C 8.730469 25.789063 8.949219 25.800781 9.179688 25.710938 C 9.410156 25.621094 9.558594 25.46875 9.640625 25.261719 C 9.738281 25.039063 9.75 24.828125 9.660156 24.609375 C 9.570313 24.398438 9.421875 24.25 9.199219 24.179688 C 8.980469 24.070313 8.761719 24.058594 8.550781 24.148438 C 8.339844 24.238281 8.191406 24.390625 8.089844 24.621094 C 8.039063 24.71875 8.011719 24.828125 8.011719 24.949219 Z M 9.859375 22.511719 L 9.859375 22.609375 C 9.878906 22.839844 9.980469 23.019531 10.160156 23.171875 C 10.390625 23.300781 10.589844 23.359375 10.78125 23.359375 C 11 23.359375 11.210938 23.25 11.390625 23.03125 L 13.710938 20.261719 C 13.851563 20.089844 13.921875 19.871094 13.910156 19.601563 C 13.890625 19.390625 13.789063 19.210938 13.628906 19.070313 C 13.46875 18.929688 13.300781 18.851563 13.109375 18.851563 C 13.050781 18.851563 13.011719 18.851563 12.96875 18.859375 C 12.738281 18.898438 12.550781 19.011719 12.410156 19.191406 L 10.050781 21.960938 C 9.921875 22.121094 9.859375 22.300781 9.859375 22.511719 Z M 10.628906 27.230469 C 10.628906 27.351563 10.660156 27.460938 10.710938 27.550781 C 10.789063 27.761719 10.941406 27.921875 11.148438 28.019531 C 11.261719 28.070313 11.371094 28.089844 11.480469 28.089844 C 11.601563 28.089844 11.710938 28.070313 11.789063 28.019531 C 12.019531 27.929688 12.179688 27.789063 12.261719 27.609375 C 12.359375 27.390625 12.371094 27.171875 12.28125 26.941406 C 12.199219 26.710938 12.050781 26.558594 11.828125 26.480469 C 11.609375 26.378906 11.390625 26.371094 11.160156 26.460938 C 10.929688 26.550781 10.78125 26.699219 10.710938 26.910156 C 10.648438 27 10.628906 27.109375 10.628906 27.230469 Z M 12.300781 24.878906 L 12.300781 24.988281 C 12.320313 25.210938 12.429688 25.390625 12.609375 25.539063 C 12.789063 25.691406 12.980469 25.761719 13.160156 25.761719 C 13.390625 25.761719 13.589844 25.648438 13.789063 25.429688 L 18.140625 20.191406 C 18.25 20.070313 18.308594 19.890625 18.308594 19.671875 L 18.308594 19.550781 C 18.289063 19.320313 18.191406 19.148438 18.039063 19.019531 C 17.890625 18.890625 17.710938 18.820313 17.519531 18.820313 L 17.390625 18.820313 C 17.160156 18.828125 16.96875 18.941406 16.839844 19.128906 L 12.488281 24.328125 C 12.351563 24.511719 12.300781 24.691406 12.300781 24.878906 Z M 15.808594 26.03125 C 15.808594 26.121094 15.828125 26.21875 15.871094 26.328125 C 15.960938 26.550781 16.109375 26.710938 16.328125 26.800781 C 16.46875 26.839844 16.570313 26.859375 16.640625 26.859375 C 16.78125 26.859375 16.898438 26.828125 16.980469 26.78125 C 17.199219 26.691406 17.359375 26.550781 17.441406 26.359375 C 17.539063 26.191406 17.550781 25.96875 17.460938 25.691406 C 17.378906 25.480469 17.230469 25.339844 17.019531 25.25 L 16.660156 25.160156 C 16.570313 25.179688 16.46875 25.199219 16.339844 25.230469 C 16.121094 25.308594 15.96875 25.460938 15.890625 25.671875 C 15.839844 25.800781 15.808594 25.921875 15.808594 26.03125 Z M 15.808594 26.03125 "/>
</g>
</svg>

<?xml version="1.0" encoding="utf-8"?>
<!-- Generator: Adobe Illustrator 22.0.1, SVG Export Plug-In . SVG Version: 6.00 Build 0)  -->
<svg version="1.1" id="Layer_1" xmlns="http://www.w3.org/2000/svg" xmlns:xlink="http://www.w3.org/1999/xlink" x="0px" y="0px"
	 viewBox="0 0 30 30" style="enable-background:new 0 0 30 30;" xml:space="preserve">
<path d="M4.63,16.93c0,1.12,0.33,2.11,0.98,2.99c0.65,0.87,1.5,1.47,2.55,1.79c0.09,0.02,0.17-0.01,0.24-0.08l1.16-1.43
	c-0.89,0-1.65-0.32-2.28-0.96c-0.63-0.64-0.95-1.41-0.95-2.31c0-0.84,0.28-1.58,0.84-2.2s1.26-0.97,2.1-1.04l0.53-0.07
	c0.11,0,0.16-0.04,0.16-0.13l0.08-0.55c0.12-1.1,0.59-2.01,1.39-2.73s1.75-1.08,2.85-1.08c1.1,0,2.06,0.36,2.87,1.09
	c0.82,0.73,1.27,1.64,1.37,2.72l0.07,0.58c0.02,0.11,0.1,0.17,0.22,0.17h1.62c0.9,0,1.67,0.32,2.3,0.95s0.95,1.39,0.95,2.29
	c0,0.83-0.28,1.56-0.84,2.18s-1.25,0.98-2.07,1.08c-0.12,0-0.28,0.02-0.49,0.06c-0.19,0.02-0.33,0.09-0.41,0.23l-2.36,2.79
	c-0.14,0.18-0.2,0.39-0.16,0.63c0.03,0.24,0.14,0.43,0.31,0.57c0.11,0.12,0.29,0.19,0.56,0.19c0.26,0,0.47-0.12,0.61-0.35l2.12-2.44
	c1.24-0.13,2.29-0.66,3.15-1.61c0.86-0.95,1.28-2.06,1.28-3.33c0-0.67-0.13-1.32-0.39-1.93c-0.26-0.61-0.61-1.14-1.05-1.58
	c-0.44-0.44-0.97-0.79-1.58-1.05c-0.61-0.26-1.25-0.39-1.93-0.39h-0.32c-0.33-1.32-1.04-2.41-2.12-3.26s-2.32-1.27-3.72-1.27
	c-0.93,0-1.81,0.2-2.63,0.6c-0.82,0.4-1.51,0.95-2.08,1.66s-0.94,1.52-1.13,2.42c-1.12,0.25-2.04,0.82-2.75,1.72
	C4.98,14.74,4.63,15.77,4.63,16.93z M8.01,24.95c0,0.06,0.02,0.16,0.06,0.3c0.09,0.21,0.23,0.36,0.44,0.44
	c0.22,0.1,0.44,0.11,0.67,0.02c0.23-0.09,0.38-0.24,0.46-0.45c0.1-0.22,0.11-0.43,0.02-0.65c-0.09-0.21-0.24-0.36-0.46-0.43
	c-0.22-0.11-0.44-0.12-0.65-0.03c-0.21,0.09-0.36,0.24-0.46,0.47C8.04,24.72,8.01,24.83,8.01,24.95z M9.86,22.51v0.1
	c0.02,0.23,0.12,0.41,0.3,0.56c0.23,0.13,0.43,0.19,0.62,0.19c0.22,0,0.43-0.11,0.61-0.33l2.32-2.77c0.14-0.17,0.21-0.39,0.2-0.66
	c-0.02-0.21-0.12-0.39-0.28-0.53c-0.16-0.14-0.33-0.22-0.52-0.22c-0.06,0-0.1,0-0.14,0.01c-0.23,0.04-0.42,0.15-0.56,0.33
	l-2.36,2.77C9.92,22.12,9.86,22.3,9.86,22.51z M10.63,27.23c0,0.12,0.03,0.23,0.08,0.32c0.08,0.21,0.23,0.37,0.44,0.47
	c0.11,0.05,0.22,0.07,0.33,0.07c0.12,0,0.23-0.02,0.31-0.07c0.23-0.09,0.39-0.23,0.47-0.41c0.1-0.22,0.11-0.44,0.02-0.67
	c-0.08-0.23-0.23-0.38-0.45-0.46c-0.22-0.1-0.44-0.11-0.67-0.02c-0.23,0.09-0.38,0.24-0.45,0.45C10.65,27,10.63,27.11,10.63,27.23z
	 M12.3,24.88v0.11c0.02,0.22,0.13,0.4,0.31,0.55c0.18,0.15,0.37,0.22,0.55,0.22c0.23,0,0.43-0.11,0.63-0.33l4.35-5.24
	c0.11-0.12,0.17-0.3,0.17-0.52v-0.12c-0.02-0.23-0.12-0.4-0.27-0.53s-0.33-0.2-0.52-0.2h-0.13c-0.23,0.01-0.42,0.12-0.55,0.31
	l-4.35,5.2C12.35,24.51,12.3,24.69,12.3,24.88z M15.81,26.03c0,0.09,0.02,0.19,0.06,0.3c0.09,0.22,0.24,0.38,0.46,0.47
	c0.14,0.04,0.24,0.06,0.31,0.06c0.14,0,0.26-0.03,0.34-0.08c0.22-0.09,0.38-0.23,0.46-0.42c0.1-0.17,0.11-0.39,0.02-0.67
	c-0.08-0.21-0.23-0.35-0.44-0.44l-0.36-0.09c-0.09,0.02-0.19,0.04-0.32,0.07c-0.22,0.08-0.37,0.23-0.45,0.44
	C15.84,25.8,15.81,25.92,15.81,26.03z"/>
</svg>
